X:047
T:Drunken Gauger (set dance), The 
B:CRE3.061 (TuisÃÂÃÂÃÂÃÂ©ara ar a Mheisce)
F:file ID: cre.3/047drunk_g
R:jig
Q:140
M:6/8
L:1/8
K:G
D|GAB c2A|B2G AGE|GBd ~g3|dB/d/e dBG|
~c3 Bc/d/B|AGA BGE|DE/F/G AGA|BGG G2:|
%B
D|GBd ~g3|d2e dBG|Ace ~a3|agb age|
dBd g2e|dB/d/e dBG|cec  Bc/d/B|AGA BGE|
%C
GAB c3|BAG AGE|GBd ~g3|dB/d/e dBG|
c3 B3|AGA BGE|DE/F/G AGA|BGG G2:|

%%%

